X: 35410
T: Round About The Maypole
R: jig
M: 6/8
K: Gmajor
|:d3|cdB ABG|FED DEF|G2 G A2 A|BAG d2 d|
ceB ABG|FED def|g2 G G2 A|BAG:|
|:d3|AFD d3|BGD d2 d|c2 c B2 B|AFD d2 d|
AFD d2 d|BGD d2 d|c2 f gdB|AFD d3|
cdB ABG|FED DEF|G2 G A2 A|BAG d2 d|
ceB ABG|FED def|g2 G G2 A|BAG:|

